media/img/twitter_logo.svg

<svg fill="none" height="24" viewBox="0 0 28 24" width="28" xmlns="http://www.w3.org/2000/svg"><path d="m8.62389 23.2083c10.34201 0 16.00021-8.5703 16.00021-16.00026 0-.24094-.0053-.48723-.016-.72816 1.1007-.79601 2.0506-1.78198 2.805-2.91158-1.0251.45609-2.1135.75396-3.228.88343 1.1735-.7034 2.0521-1.80842 2.4731-3.11021-1.104.65425-2.3113 1.11577-3.5702 1.36477-.8482-.90126-1.9696-1.49801-3.191-1.69797-1.2214-.199959-2.4746.008-3.5659.59172-1.0914.58372-1.96 1.5107-2.4717 2.63762-.5116 1.12691-.6378 2.39099-.359 3.59681-2.2353-.11218-4.42217-.69286-6.4187-1.70441-1.99654-1.01155-3.75821-2.43139-5.17081-4.16746-.71796 1.23785-.93766 2.70262-.61444 4.09663.32321 1.39401 1.16509 2.61265 2.35453 3.40825-.89296-.02835-1.76636-.26877-2.54803-.70139v.0696c-.0008 1.29901.44829 2.55821 1.27092 3.56361.82264 1.0053 1.96805 1.6948 3.24153 1.9511-.82718.2264-1.69535.2593-2.53732.0964.35936 1.1172 1.05853 2.0943 1.99994 2.795.9414.7007 2.07808 1.0899 3.25139 1.1135-1.99193 1.5647-4.45254 2.4134-6.98553 2.4094-.449199-.0007-.897961-.0282-1.34388-.0825 2.57324 1.6509 5.56661 2.5277 8.62389 2.5261z" fill="#fff" fill-opacity=".7"/></svg>

<svg width="28" height="24" viewBox="0 0 28 24" fill="none" xmlns="http://www.w3.org/2000/svg">
<path d="M8.62389 23.2083C18.9659 23.2083 24.6241 14.638 24.6241 7.20804C24.6241 6.9671 24.6188 6.72081 24.6081 6.47988C25.7088 5.68387 26.6587 4.6979 27.4131 3.5683C26.388 4.02439 25.2996 4.32226 24.1851 4.45173C25.3586 3.74833 26.2372 2.64331 26.6582 1.34152C25.5542 1.99577 24.3469 2.45729 23.088 2.70629C22.2398 1.80503 21.1184 1.20828 19.897 1.00832C18.6756 0.808361 17.4224 1.01632 16.3311 1.60004C15.2397 2.18376 14.3711 3.11074 13.8594 4.23766C13.3478 5.36457 13.2216 6.62865 13.5004 7.83447C11.2651 7.72229 9.07823 7.14161 7.0817 6.13006C5.08516 5.11851 3.32349 3.69867 1.91089 1.9626C1.19293 3.20045 0.97323 4.66522 1.29645 6.05923C1.61966 7.45324 2.46154 8.67188 3.65098 9.46748C2.75802 9.43913 1.88462 9.19871 1.10295 8.76609V8.83569C1.10215 10.1347 1.55124 11.3939 2.37387 12.3993C3.19651 13.4046 4.34192 14.0941 5.6154 14.3504C4.78822 14.5768 3.92005 14.6097 3.07808 14.4468C3.43744 15.564 4.13661 16.5411 5.07802 17.2418C6.01942 17.9425 7.1561 18.3317 8.32941 18.3553C6.33748 19.92 3.87687 20.7687 1.34388 20.7647C0.894681 20.764 0.445919 20.7365 0 20.6822C2.57324 22.3331 5.56661 23.2099 8.62389 23.2083Z" fill="white" fill-opacity="0.7"/>
</svg>
